X: 154
T: Tam Lin
T: The Glasgow
C:Davey Arthur
R: reel
M: 4/4
L: 1/8
K:Dmin
"Dm"A,2DA, FA,DA,|"Bb"B,2DB, FB,DB,|"C"C2EC GCEC|"Dm"FEDF "C"EDCB,|
"Dm"A,2DA, FA,DA,|"Bb"B,2DB, FB,DB,|"C"C2EC GCEC|"Dm"FEDC A,DD2:|
|: "Dm"dA~A2 FADA|dA~A2 FADA|"C"cG~G2 EG~G2|cG~G2 cdec|
"Dm"dA~A2 FADA|dA~A2 FEDC|"Bb"~B,3A, B,CDE|"Dm"FDEC A,DD2:|


